!!!COA:	Josquin des Prez
!!!CDT:	~1450-1521/08/27
!!!OPR:	Missa Rosina
!!!ONM:	3
!!!OTL:	Credo
!!!AGN:	Mass; Credo
!!!SCT:	NJE 9.4
!!!SCA:	New Josquin Edition 9.4
!!!voices:	4
!!!voices-OPR:	4
**kern	**kern	**kern	**kern
*staff4	*staff3	*staff2	*staff1
*Ivox	*Ivox	*Ivox	*Ivox
*I"Bassus	*I"Tenor	*I"Altus	*I"Superius
*I'B	*I'T	*I'A	*I'S
*clefF4	*clefGv2	*clefGv2	*clefG2
*k[]	*k[]	*k[]	*k[]
*M2/1	*M2/1	*M2/1	*M2/1
*met(C|)	*met(O.)	*met(C|)	*met(C|)
!!section: Patrem
!!!OMD: Patrem
=1-	=1-	=1-	=1-
0r	0r	1.E	0r
.	.	2F/	.
=2	=2-	=2	=2
0r	0ryy	1G	0r
.	.	1G	.
=3	=3-	=3	=3
0r	0ryy	1A	1.e
.	.	1c	.
.	.	.	2f/
=4	=4-	=4	=4
1r	0ryy	0B	1g
1E	.	.	1g
=5	=5-	=5	=5
2.F\	0ryy	0A	1a
4G\	.	.	.
2A\	.	.	1cc
2F\	.	.	.
=6	=6-	=6	=6
2G\	0ryy	1r	0b
2.E\	.	.	.
.	.	1G	.
4D\	.	.	.
2E\	.	.	.
=7	=7-	=7	=7
1F	0ryy	1c	0a
1D	.	1d	.
=8	=8-	=8	=8
2.C/	0ryy	1.e	1r
4D\	.	.	.
1E	.	.	1g
.	.	2e\	.
=9	=9-	=9	=9
2r	0ryy	2f\	2a/
2.AA/	.	1e	1cc
4BB/	.	.	.
4C/	.	4d\	4b\
4D\	.	4c\	4a/
=10	=10	=10	=10
2E\	0r	2B\	2g/
2C/	.	2c\	2e/
2F\	.	2A/	2f/
2E\	.	2G/	[2g/
=11	=11-	=11	=11
1C	0ryy	1c	4g/]
.	.	.	4f/
.	.	.	2e/
2r	.	2B\	2d/
[2F\	.	[2A/	2c/
=12	=12-	=12	=12
2F\]	0ryy	2A/]	2f/
2C/	.	2G/	1e
1D	.	1F	.
.	.	.	2d/
=13	=13-	=13	=13
1AA	0ryy	1E	1e
2r	.	2r	2r
[2AA/	.	[2A/	[2c/
=14	=14-	=14	=14
2AA/]	0ryy	2A/]	2c/]
2D\	.	2A/	2d/
2C/	.	2A/	2e/
2F\	.	2A/	2f/
=15	=15-	=15	=15
2E\	0ryy	2G/	1g
2C/	.	1c	.
2F\	.	.	2a/
2F\	.	2d\	2a/
=16	=16-	=16	=16
1E	0ryy	1e	1g
1A	.	1c	1cc
=17	=17-	=17	=17
2G\	0ryy	2d\	2b\
1F	.	1f	1a
2G\	.	4e\	4g/
.	.	4d\	4f/
=18	=18-	=18	=18
2A\	0ryy	2c\	2e/
2D\	.	2d\	1a
1E	.	1B	.
.	.	.	2g#i/
=19	=19	=19	=19
0AA	[0E/	0A	1a
.	.	.	1r
=20	=20-	=20	=20
1r	0E/_	1r	2.e/
.	.	.	4f/
2r	.	2.E/	2.g/
2AA/	.	.	.
.	.	4F/	4a/
=21	=21-	=21	=21
2E\	0E/_	2G/	2.g/
2AA/	.	2A/	.
.	.	.	4f/
2.E\	.	2.G/	1e
4D\	.	4F/	.
=22	=22-	=22	=22
2C/	0E/_	1E	1r
2AA/	.	.	.
1E	.	2r	1g
.	.	2e\	.
=23	=23-	=23	=23
1AA	0E/_	2c\	2e/
.	.	2A/	1a
1E	.	1B	.
.	.	.	2g#i/
=24	=24-	=24	=24
0AA	0E/_	1.A	0a
.	.	4G/	.
.	.	4F/	.
=25	=25-	=25	=25
1r	0E/_	0E	1r
2r	.	.	1b
2E\	.	.	.
=26	=26-	=26	=26
2.C/	0E/_	1r	1cc
4D\	.	.	.
2.E\	.	1B	2b\
.	.	.	[2g/
4D\	.	.	.
=27	=27-	=27	=27
2C/	0E/]	1c	2g/]
4BB/	.	.	2a/
4AA/	.	.	.
1GG	.	2B\	2b\
.	.	[2B\	[2g/
=28	=28	=28	=28
2GG/	[0G/	2B\]	2g/]
1GG	.	2B\	4f/
.	.	.	4e/
.	.	1B	1d
2GG/	.	.	.
=29	=29-	=29	=29
1C	0G/_	2.G/	1e
.	.	4A/	.
1r	.	4B\	2d/
.	.	4c\	.
.	.	[2d\	2d/
=30	=30-	=30	=30
1GG	0G/]	4d\]	2d/
.	.	4c\	.
.	.	4B\	2d/
.	.	4A/	.
2GG/	.	2B\	1d
2GG/	.	2B\	.
=31	=31-	=31	=31
1D	[0A/	1A	1r
2r	.	2r	[1f
[2D\	.	[2d\	.
=32	=32-	=32	=32
2D\]	0A/_	2d\]	1f]
2D\	.	2d\	.
1D	.	1d	1f
=33	=33-	=33	=33
2C/	0A/]	2r	2e/
1D	.	2.D/	1f
.	.	4E/	.
4C/	.	4F/	4e/
4BB/	.	4G/	4d/
=34	=34-	=34	=34
1AA	[0c\	1A	1c
2.A\	.	1F	2.cc\
4G\	.	.	4b\
=35	=35-	=35	=35
4F\	0c\_	1r	4a/
4E\	.	.	4g/
1F	.	.	1a
.	.	1F	.
4E\	.	.	4g/
4D\	.	.	4f/
=36	=36-	=36	=36
0C	0c\]	2G/	2e/
.	.	1E	1g
.	.	2F/	4f/
.	.	.	4e/
=37	=37	=37	=37
1r	[0B\	0G	1d
1GG	.	.	2r
.	.	.	[2g/
=38	=38-	=38	=38
[0GG	0B\_	2r	2g/]
.	.	1G	4f/
.	.	.	4e/
.	.	.	2d/
.	.	4F/	[2g/
.	.	4E/	.
=39	=39-	=39	=39
1GG]	0B\_	2D/	2g/]
.	.	1G	4f/
.	.	.	4e/
[1GG	.	.	[1d
.	.	4F/	.
.	.	4E/	.
=40	=40-	=40	=40
1GG]	0B\_	2D/	0d]
.	.	1d	.
1r	.	.	.
.	.	2d\	.
=41	=41-	=41	=41
1G	0B\_	0d	0r
2G\	.	.	.
2G\	.	.	.
=42	=42-	=42	=42
1G	0B\_	0d	1.g
1G	.	.	.
.	.	.	2g/
=43	=43-	=43	=43
1.E	0B\_	0e	1g
.	.	.	1g
4D\	.	.	.
4C/	.	.	.
=44	=44-	=44	=44
0BB	0B\_	1r	0d
.	.	[1d	.
=45	=45-	=45	=45
0GG	0B\]	1d]	1r
.	.	1d	1g
=46	=46	=46	=46
1D	[0A/	2d\	1f
.	.	4c\	.
.	.	4d\	.
2C/	.	2e\	2e/
[2D\	.	2d\	[2f/
=47	=47-	=47	=47
2D\]	0A/_	2.A/	2f/]
4C/	.	.	4e/
4BB/	.	4B\	4d/
2AA/	.	2c\	2c/
[2C/	.	[2A/	[2e/
=48	=48-	=48	=48
2C/]	0A/_	4A/]	2e/]
.	.	4G/	.
2D\	.	2F/	1d
1AA	.	1E	.
.	.	.	2c#i/
=49	=49-	=49	=49
1D	0A/_	2D/	1d
.	.	2F/	.
2C/	.	2E/	1r
[2D\	.	[2F/	.
=50	=50-	=50	=50
2D\]	0A/_	2F/]	0r
4C/	.	4E/	.
4BB/	.	4D/	.
2AA/	.	2C/	.
2C/	.	[2E/	.
=51	=51-	=51	=51
1D	0A/_	2E/]	1r
.	.	1D	.
1AA	.	.	1e
.	.	2C#i/	.
=52	=52-	=52	=52
[0D	0A/_	1D	1.f
.	.	2r	.
.	.	2d\	2f/
=53	=53-	=53	=53
0D]	0A/_	2d\	1f
.	.	2d\	.
.	.	2d\	1f
.	.	2d\	.
=54	=54-	=54	=54
0AA	0A/]	0c	0e
=55	=55	=55	=55
*	*M2/1	*	*
*	*met(C|.)	*	*
1D	0r	1A	0r
2C/	.	2r	.
[2D\	.	[2A/	.
=56	=56-	=56	=56
2D\]	0ryy	2A/]	0r
2E\	.	2G/	.
2F\	.	1A	.
[2D\	.	.	.
=57	=57-	=57	=57
2D\]	0ryy	2B\	0r
2.A\	.	2c\	.
.	.	1A	.
4G\	.	.	.
2F\	.	.	.
=58	=58-	=58	=58
1E	0ryy	2.e\	0r
.	.	4d\	.
2F\	.	2c\	.
[2G\	.	[2B\	.
=59	=59-	=59	=59
4G\]	0ryy	2B\]	1r
4F\	.	.	.
2E\	.	2c\	.
1D	.	2.d\	1f
.	.	4c\	.
=60	=60-	=60	=60
2E\	0ryy	2B\	2g/
2.F\	.	1A	2.a/
4E\	.	.	4g/
2D\	.	2B\	2f/
=61	=61-	=61	=61
1C	0ryy	2.c\	1e
.	.	4B\	.
2D\	.	2A/	2f/
[2E\	.	[2G/	[2g/
=62	=62-	=62	=62
4E\]	0ryy	2G/]	4g/]
4D\	.	.	4f/
2C/	.	2A/	2e/
1BB	.	4B\	1d
.	.	4A/	.
.	.	4G/	.
.	.	4F/	.
=63	=63-	=63	=63
2C/	0ryy	2E/	2e/
2D\	.	1A	2f/
1BB	.	.	1d
.	.	2G#i/	.
=64	=64-	=64	=64
2.AA/	[0E/	1A	0c
4BB/	.	.	.
1C	.	[1G	.
=65	=65-	=65	=65
2r	0E/_	1G]	0r
2G\	.	.	.
2E\	.	2r	.
[2G\	.	2G/	.
=66	=66-	=66	=66
4G\]	0E/_	2E/	2r
4F\	.	.	.
4E\	.	2.G/	2g/
4D\	.	.	.
1C	.	.	2e/
.	.	4F/	.
.	.	4E/	[2g/
.	.	4D/	.
=67	=67-	=67	=67
0C	0E/_	2C/	4g/]
.	.	.	4f/
.	.	2.c\	4e/
.	.	.	4d/
.	.	.	[1c
.	.	4d\	.
.	.	2e\	.
=68	=68-	=68	=68
2r	1E/]	2c\	1c]
2.C/	.	2.e\	.
.	[y1G/	.	1r
4D\	.	4d\	.
2E\	.	2B\	.
=69	=69-	=69	=69
2C/	0G/]yy	2c\	1e
2.E\	.	2B\	.
.	.	1e	2c/
4D\	.	.	.
4C/	.	.	[2e/
4BB/	.	.	.
=70	=70-	=70	=70
1.AA	[y0A/	2c\	4e/]
.	.	.	4d/
.	.	2.e\	4c/
.	.	.	4B/
.	.	.	1A
.	.	4d\	.
[2AA/	.	4c\	.
.	.	4B\	.
=71	=71-	=71	=71
2AA/]	1A/]yy	2A/	2a/
2D\	.	2F/	2a/
2E\	[y1c\	1G	2g/
2C/	.	.	2e/
=72	=72-	=72	=72
1F	0c\]yy	1A	1f
2.C/	.	2r	2.e/
.	.	[2G/	.
4D\	.	.	4f/
=73	=73-	=73	=73
2.E\	[0B\	4G/]	2.g/
.	.	4A/	.
.	.	2.B\	.
4F\	.	.	4a/
2G\	.	.	1b
.	.	4c\	.
2G\	.	2d\	.
=74	=74-	=74	=74
2.E\	0B\_	2.G/	1e
4F\	.	4A/	.
2G\	.	2B\	2d/
[2E\	.	2G/	[2g/
=75	=75-	=75	=75
2E\]	0B\_	2.B\	2g/]
4D\	.	.	2a/
4C/	.	4c\	.
2BB/	.	2d\	2.b\
2E\	.	2G/	.
.	.	.	4cc\
=76	=76-	=76	=76
2D\	0B\_	1d	2dd\
2.G\	.	.	2.b\
.	.	1r	.
4F\	.	.	4a/
4E\	.	.	4g#i/
4D\	.	.	4f#i/
=77	=77-	=77	=77
1E	1B\]	1e	2g#i/
.	.	.	2g#i/
1AA	[1A/	2.c\	[1a
.	.	4d\	.
=78	=78-	=78	=78
1r	0A/_	1e	1a]
1AA	.	[1c	1e
=79	=79-	=79	=79
1AA	0A/_	2c\]	1e
.	.	2c\	.
1D	.	1d	1f
=80	=80-	=80	=80
1D	0A/_	1d	1f
1AA	.	2e\	2e/
.	.	2c\	[2a/
=81	=81-	=81	=81
1D	0A/]	2d\	4a/]
.	.	.	4g/
.	.	4c\	4f/
.	.	4B\	4e/
1D	.	1A	2f/
.	.	.	2f/
=82	=82-	=82	=82
*	*M2/1	*	*
*	*met(C)	*	*
1E	0r	1G	0g
2r	.	1c	.
2C/	.	.	.
=83	=83-	=83	=83
1G	0ryy	1B	1r
1F	.	1A	1cc
=84	=84-	=84	=84
2G\	0ryy	1G	1b
2E\	.	.	.
1F	.	1A	1a
=85	=85-	=85	=85
2E\	0ryy	2B\	1g
2C/	.	1c	.
1F	.	.	1a
.	.	4B\	.
.	.	4A/	.
=86	=86-	=86	=86
2E\	0ryy	2G/	2b\
1A	.	2.A/	1cc
.	.	4B\	.
4G\	.	4c\	4b\
4F\	.	4d\	4a/
=87	=87-	=87	=87
2E\	0ryy	2e\	2.g/
2F\	.	4d\	.
.	.	4c\	4a/
[1G	.	2B\	4b\
.	.	.	4cc\
.	.	2G/	[2dd\
=88	=88-	=88	=88
0G]	0ryy	2B\	2dd\]
.	.	2c\	1cc
.	.	1d	.
.	.	.	2b\
=89	=89-	=89	=89
0C	0G	1.c	1.cc
.	.	2d\	4b\
.	.	.	4a/
=90	=90-	=90	=90
1C	0c	2e\	2g/
.	.	2f\	2a/
[1C	.	1g	2.e/
.	.	.	4f/
=91	=91-	=91	=91
1C]	1c\	2r	2g/
.	.	2e\	1a
2r	1d\	2d\	.
2G\	.	2B\	2b\
=92	=92-	=92	=92
2E\	0e	0c	2g/
1A	.	.	1cc
4G\	.	.	4b\
4F\	.	.	4a/
=93	=93-	=93	=93
2E\	0e	0c	0g
2C/	.	.	.
1C	.	.	.
=94	=94-	=94	=94
*	*M2/1	*	*
*	*met(C|)	*	*
2r	0r	0B	1r
2G\	.	.	.
2.G\	.	.	2r
.	.	.	2g/
4F\	.	.	.
=95	=95-	=95	=95
2.E\	0ryy	2r	2.g/
.	.	2B\	.
4D\	.	.	4f/
1C	.	2.c\	2.e/
.	.	4B\	4d/
=96	=96-	=96	=96
2r	0ryy	2.A/	1c
2F\	.	.	.
.	.	4G/	.
2.F\	.	1F	2r
.	.	.	2f/
4E\	.	.	.
=97	=97-	=97	=97
1D	1ryy	2r	2f/
.	.	2A/	2f/
2C/	1G	2c\	1e
[2E\	.	4B\	.
.	.	4A/	.
=98	=98-	=98	=98
4E\]	1c	2.G/	2r
4D\	.	.	.
1C	.	.	2g/
.	.	4F/	.
.	2c\	2E/	2a/
2BB/	2d\	2D/	2b\
=99	=99-	=99	=99
1AA	1e	1A	2.cc\
.	.	.	4dd\
1E	1e	1G	1b
=100	=100-	=100	=100
*	*M2/1	*	*
*	*met(C.)	*	*
0F	0r	0c	1r
.	.	.	1a
=101	=101-	=101	=101
1G	0ryy	1B	0g
1E	.	[1e	.
=102	=102-	=102	=102
0A	0ryy	1e]	0cc
.	.	1c	.
=103	=103-	=103	=103
0G	0ryy	0d	0b
=104	=104-	=104	=104
1A	0ryy	1c	1.a
1D	.	1d	.
.	.	.	2b\
=105	=105-	=105	=105
1A	0ryy	1c	1cc
1G	.	1B	[1dd
=106	=106-	=106	=106
1F	0ryy	0c	2dd\]
.	.	.	2cc\
1A	.	.	[1cc
=107	=107-	=107	=107
0G	0ryy	0d	1cc]
.	.	.	1b
=108	=108-	=108	=108
1C	0ryy	1c	0cc
1F	.	2r	.
.	.	2c\	.
=109	=109-	=109	=109
2F\	0ryy	2A/	1r
2G\	.	2B\	.
2A\	.	2c\	1a
2D\	.	[2d\	.
=110	=110-	=110	=110
2G\	0ryy	2d\]	2b\
2E\	.	2e\	2g/
2A\	.	2c\	2a/
2G\	.	2d\	[2b\
=111	=111-	=111	=111
1F	0ryy	1A	4b\]
.	.	.	4a/
.	.	.	1a
1E	.	1B	.
.	.	.	2g#i/
=112	=112-	=112	=112
1AA	[0A/	0A	1.a
1D	.	.	.
.	.	.	4g/
.	.	.	4f/
=113	=113-	=113	=113
2C/	0A/_	1r	2e/
1D	.	.	1f
.	.	2.F/	.
4C/	.	.	4e/
4BB/	.	4G/	4d/
=114	=114-	=114	=114
2AA/	0A/_	2A/	2c/
1D	.	1F	1A
4C/	.	4E/	[2d/
4BB/	.	4D/	.
=115	=115-	=115	=115
1AA	0A/_	1E	2d/]
.	.	.	2c#i/
2.D\	.	[1D	1d
4E\	.	.	.
=116	=116-	=116	=116
2F\	0A/_	0D]	1r
2D\	.	.	.
2.F\	.	.	2.A/
4G\	.	.	4B/
=117	=117-	=117	=117
1A	0A/]	1r	2c/
.	.	.	2A/
2.AA/	.	1A	2.c/
4BB/	.	.	4d/
=118	=118-	=118	=118
2C/	[0E/	2G/	2e/
2AA/	.	2A/	2c/
2.C/	.	2G/	2.e/
.	.	2E/	.
4D\	.	.	4f/
=119	=119-	=119	=119
2E\	0E/_	2B\	2g/
2C/	.	2c\	2e/
2.E\	.	2B\	2.g/
.	.	[2G/	.
4F\	.	.	4a/
=120	=120-	=120	=120
2G\	0E/]	2G/]	2b\
2C/	.	2c\	2e/
2r	.	2B\	2r
[2C/	.	[2c\	[2e/
=121	=121-	=121	=121
4C/]	[0C/	4c\]	4e/]
4D\	.	4B\	4f/
2E\	.	2G/	2g/
1AA	.	1A	1c
=122	=122-	=122	=122
2r	0C/_	2G/	2r
2.AA/	.	1c	1e
4BB/	.	.	.
4C/	.	4B\	4d/
4D\	.	4A/	4c/
=123	=123-	=123	=123
2.E\	0C/]	1G	1g
4F\	.	.	.
1G	.	1C	2.e/
.	.	.	4f/
=124	=124-	=124	=124
*	*M2/2	*	*
*	*met(C|.)	*	*
1C	0r	1c	2g/
.	.	.	2a/
1r	.	2B\	2g/
.	.	[2e\	[2cc\
=125	=125-	=125	=125
1r	0ryy	4e\]	4cc\]
.	.	4d\	4b\
.	.	2c\	1a
1E	.	1B	.
.	.	.	2g#i/
=126	=126-	=126	=126
2.F\	0ryy	1A	2.a/
4E\	.	.	4gni/
2C/	.	1r	2e/
[2D\	.	.	[2f/
=127	=127-	=127	=127
4D\]	0ryy	1r	4f/]
4C/	.	.	4e/
2AA/	.	.	2c/
1BB	.	1B	1d
=128	=128-	=128	=128
2AA/	0ryy	1c	2e/
2r	.	.	1g
2r	.	2G/	.
[2D\	.	[2A/	[2f/
=129	=129-	=129	=129
2D\]	0ryy	4A/]	2f/]
.	.	4G/	.
2C/	.	2E/	1e
1D	.	1F	.
.	.	.	2d/
=130	=130-	=130	=130
[0AA	[0A	0E	[0e
=131	=131-	=131	=131
0AA_	0A_	1r	0e]
.	.	1e	.
=132	=132-	=132	=132
0AA]	0A]	1c	1r
.	.	1c	1e
=133	=133-	=133	=133
1C	[y0E	1c	1e
2r	.	2B\	1e
[2C/	.	[2c\	.
=134	=134-	=134	=134
4C/]	1E/]yy	2c\]	[0e
4D\	.	.	.
4E\	.	4B\	.
4F\	.	4A/	.
1G	[y1C/	2G/	.
.	.	[2c\	.
=135	=135-	=135	=135
2E\	0C]yy	2c\]	1e]
2.G\	.	2d\	.
.	.	1e	1r
4F\	.	.	.
4E\	.	.	.
4D\	.	.	.
=136	=136-	=136	=136
*	*M3/1	*	*
*	*met(O)	*	*
2C/	0r	2c\	2.g/
1G	.	2d\	.
.	.	.	4f/
.	.	2B\	2e/
[2F\	.	[2A/	[2d/
=137	=137-	=137	=137
2F\]	0ryy	2A/]	2d/]
2E\	.	1G	1c
1D	.	.	.
.	.	2F/	2B/
=138	=138-	=138	=138
1C	0ryy	2G/	2c/
.	.	2A/	2cc\
1r	.	2B\	2b\
.	.	2c\	[2a/
=139	=139-	=139	=139
1r	0ryy	2F/	2a/]
.	.	2G/	2g/
1D	.	2A/	1f
.	.	2B\	.
=140	=140-	=140	=140
1.C	0c	2.c\	1.e
.	.	8B/L	.
.	.	8A/J	.
.	.	2.G/	.
4BB/	.	.	2f/
4AA/	.	4A/	.
=141	=141-	=141	=141
1GG	1B\	4B\	1g
.	.	4c\	.
.	.	1d	.
[1D	[y1A/	.	[1f
.	.	4c\	.
.	.	4B\	.
=142	=142-	=142	=142
2D\]	1A/]yy	2A/	2f/]
2AA/	.	1.c	2e/
1C	1G/	.	[1e
=143	=143-	=143	=143
0D	0F	0A	2e/]
.	.	.	4d/
.	.	.	4c/
.	.	.	1d
=144	=144-	=144	=144
0AA	[y0E	2r	0e
.	.	1c	.
.	.	4B\	.
.	.	4A/	.
=145	=145-	=145	=145
0r	0E]yy	0B	1r
.	.	.	1g
=146	=146-	=146	=146
*	*M2/1	*	*
*	*met(O|)	*	*
1r	0r	1c	2e/
.	.	.	2a/
2r	.	2B\	2g/
[2D\	.	[2A/	[2f/
=147	=147-	=147	=147
4D\]	0ryy	2A/]	4f/]
4AA/	.	.	4e/
2C/	.	2G/	1e
1D	.	1F	.
.	.	.	2d/
=148	=148-	=148	=148
1C	1c	4E/	2g/
.	.	4F/	.
.	.	4G/	4f/
.	.	4A/	4e/
1r	2B\	2B\	2d/
.	[y2A/	[2c\	2c/
=149	=149-	=149	=149
0r	2A/]yy	2c\]	2f/
.	2G/	1B	1e
.	1F	.	.
.	.	2A/	2d/
=150	=150-	=150	=150
1.G	[0El	1.B	[0el
[2E\	.	[2G/	.
=151	=151-	=151	=151
2E\]	0E_	2G/]	0e_
2.AA/	.	1c	.
4BB/	.	.	.
4C/	.	4B\	.
4D\	.	4A/	.
=152	=152-	=152	=152
2E\	0E_	2G/	0e_
2AA/	.	1A	.
1E	.	.	.
.	.	2G#i/	.
=153	=153-	=153	=153
0AAl	0E]	0Al	0e]
==	==	==	==
*-	*-	*-	*-
!!!RDF**kern: l=long note in original notation
!!!RDF**kern: i=editorial accidental
!!!RDF**kern: V=start of tuplet marker
!!!RDF**kern: Z=end of tuplet marker
!!!ENC:	Jesse Rodin (May 2013
!!!END:	2013/05/10/
!!!EED:	Jesse Rodin
!!!EEV:	2013/05/13/
!!attribution-level@Jos: 4 (questionable)
!!!ONB:	Translated from MusicXML and edited on 2013/05/13/ by Craig Sapp
!!muse2ps: T^@{OPR}^u^@{ONM}{. }@{OTL}^C^@{COA}?\n@{SCT}^i2I150v85,85,85,150Q16
